!!!!SEGMENT: pl-kk--kk-i-40--002-004_monte-philippe-de--missa-agnus-dei.krn
!!!cenid: 16xx:1284
!!!COM: Monte, Philippe de
!!!COM-rismid: pe30005218
!!!CDT: 1521-1603/07/04
!!!CNT: Flemish
!!!OPR: Missa
!!!OTL: Agnus Dei
!!!OMV: 004
!!!PDT:
!!!AGN: Sacred; Mass
!!!SMS-siglum: PL-Kk
!!!SMS-shelfmark: Kk.I.40
!!!SMS-shelfwork: 002-004 M
!!!SMS-variant:
!!!SMS-altvar:
!!!NIFC-rismid: 1001154488
!!!URL-scan: http://repozytorium.nifc.pl/skany/pl-kk-nut--i-40
!!!ONB-nifc: UWAGA: części Mszy: 1. Kyrie, 2. Et in terra, 3. Sanctus, 4. Agnus Dei. Skan 0005
**kern	**text
*Iempty	*
*I"Baſso Ripieno.	*
*I'B rip	*
*clefF3	*
*k[b-]	*
*c:	*
*M2/1	*
*met(c|)	*
=1-	=1-
!LO:TX:t=P:problem:oddech/cezura na różnej wysokości:global	!
!LO:TX:t=P:problem:znaki: BB- pod B-	!
!LO:N:vis=00	!
00r	.
=2-	=2-
.	.
=3-	=3-
!LO:N:vis=00	!
00r	.
=4-	=4-
.	.
=5-	=5-
!LO:TX:t=P:problem:kreska pseudotaktowa	!
!LO:N:vis=0	!
0r	.
=6-	=6-
2r	.
1d	A-
*2\right	*
2D/	-gnus
=7-	=7-
2.E-X/	De-
4D/	.
1C	.
=8-	=8-
!LO:TX:t=P:problem:kreska pseudotaktowa	!
1BB-	-i
!LO:TX:t=P:problem:kreska pseudotaktowa	!
1r	.
=9-	=9-
2r	.
*	*ij
1G	A-
!LO:TX:t=P:problem:kreska pseudotaktowa	!
2C/	-gnus
=10-	=10-
2.G\	De-
!LO:TX:t=P:problem:kreska pseudotaktowa	!
4F\	.
4G\	.
4A\	.
2.B-\	.
=11-	=11-
.	.
4A\	.
!LO:TX:t=P:problem:kreska pseudotaktowa	!
2G\	.
2F,\	-i
*	*Xij
1G\	A-
=12-	=12-
.	.
!LO:TX:t=P:problem:kreska pseudotaktowa	!
2C/	-gn(us)
1D	De-
=13-	=13-
2G,\	-i
!LO:TX:t=P:problem:kreska pseudotaktowa	!
2G\	Qui
1F	tol-
=14-	=14-
2C,/	-lis
2C/	p(e)c-
1G	-(ca)-
=15-	=15-
!LO:TX:t=P:problem:kreska pseudotaktowa	!
1D	-ta
0A	mun-
=16-	=16-
.	.
!LO:TX:t=P:problem:kreska pseudotaktowa	!
0D	-di
=17-	=17-
.	.
!LO:N:vis=0	!
0r	.
=18-	=18-
.	.
!LO:TX:t=P:problem:kreska pseudotaktowa	!
!LO:N:vis=1	!
1r	.
=19-	=19-
4r	.
2A\	mi-
!LO:TX:t=P:problem:kreska pseudotaktowa	!
4A\	-ſe-
2G\	-re-
2D,/	-re
=20-	=20-
1G	no-
!LO:TX:t=P:problem:kreska pseudotaktowa	!
1A	-bis
!LO:LB:g=original	!
=21-	=21-
*	*ij
2.D/	mi-
4D/	-ſe-
2C/	-re-
2G\	-re
=22-	=22-
1C	no-
!LO:TX:t=P:problem:kreska pseudotaktowa	!
1D	-bis
*	*Xij
=23-	=23-
1.E-X	mi-
!LO:TX:t=P:problem:kreska pseudotaktowa	!
2E-/	-ſe-
=24-	=24-
2C/	-re-
2G\	-re
1C	no-
=25-	=25-
!LO:TX:t=P:problem:kreska pseudotaktowa	!
0G;>	-bis.
=26||	=26||
*M2/1	*
*met(c|)	*
1.F	A-
!LO:TX:t=P:problem:kreska pseudotaktowa	!
2F\	-gn(us)
=27-	=27-
1C	De-
!LO:TX:t=P:problem:kreska pseudotaktowa	!
1C	-i
=28-	=28-
0D	qui
=29-	=29-
0D	tol-
=30-	=30-
!LO:TX:t=P:problem:kreska pseudotaktowa	!
1G	-lis
1F	p(e)c-
=31-	=31-
1.E-X	-(ca)-
2E-/	-ta
=32-	=32-
*lig	*
1E-y	mun-
!LO:TX:t=P:problem:kreska pseudotaktowa	!
1F	.
*Xlig	*
=33-	=33-
2BB-,/	-di
1B-	mi-
2E-X/	-se-
=34-	=34-
2.B-\	-re-
4BB-/	-re
2F/	.
2C/	no-
=35-	=35-
!LO:TX:t=P:problem:kreska pseudotaktowa	!
1D	-bis
00r	.
=36-	=36-
.	.
=37-	=37-
.	.
0r	.
=38-	=38-
.	.
!LO:TX:t=P:problem:kreska pseudotaktowa	!
!LO:N:vis=1	!
1r	.
=39-	=39-
2r	.
2d\	mi-
2c\	-ſe-
2Bn\	-re-
=40-	=40-
1c,	-re
1G	no-
=41-	=41-
!LO:TX:Bi:b:t=Agnus 3tium ut 1mum	!
0D;>	-bi(s).
==	==
*-	*-
!!!RDF**kern: > = above
!!!RDF**kern: < = below
!!!EED: Antoni Szymański
!!!EST: 2021-07-31
!!!ENC: Berenika Jozajtis
!!!END: 2021-07-04
